icon/pk/bread-one.svg

<svg viewBox="0 0 48 48" fill="none" xmlns="http://www.w3.org/2000/svg" height="1em" width="1em">
  <path d="M9 26C9 26 17 14 22 7.99998C25.1307 4.24312 31 2.75 36 5C41 7.25 43 12 41 16C39 20 31 35 31 35" stroke="black" stroke-width="4" stroke-linecap="round" stroke-linejoin="round"/>
  <path d="M31 33.1882C31 36.3399 29.2441 39.1574 26.4861 41.0262C24.3203 42.4938 21.5366 41.867 18.5 41.867C15.2985 41.867 12.3782 42.3954 10.1667 40.7821C7.60938 38.9166 6 36.2056 6 33.1882C6 26.8125 11.5964 23 18.5 23C25.4036 23 31 27.5614 31 33.1882Z" fill="#2F88FF" stroke="black" stroke-width="4" stroke-linecap="round" stroke-linejoin="round"/>
  <path d="M23 33.2173C23 34.2126 22.3679 35.1023 21.375 35.6925C20.5953 36.1559 19.5932 35.958 18.5 35.958C17.3475 35.958 16.2961 36.1248 15.5 35.6154C14.5794 35.0263 14 34.1702 14 33.2173C14 31.2039 16.0147 30 18.5 30C20.9853 30 23 31.4404 23 33.2173Z" fill="#43CCF8" stroke="white" stroke-width="4" stroke-linecap="round" stroke-linejoin="round"/>
  <path d="M14.9998 18.0001C14.9998 18.0001 18.5 17.0001 23 18.0001" stroke="black" stroke-width="4" stroke-linecap="round" stroke-linejoin="round"/>
  <path d="M19.9997 10.9999C19.9997 10.9999 23.5 9.49985 26.9998 10.9999" stroke="black" stroke-width="4" stroke-linecap="round" stroke-linejoin="round"/>
</svg>

<svg width="48" height="48" fill="none" xmlns="http://www.w3.org/2000/svg"><path d="M9 26s8-12 13-18c3.13-3.757 9-5.25 14-3s7 7 5 11-10 19-10 19" stroke="#000" stroke-width="4" stroke-linecap="round" stroke-linejoin="round"/><path d="M31 33.188c0 3.152-1.756 5.97-4.514 7.838-2.166 1.468-4.95.841-7.986.841-3.201 0-6.122.528-8.333-1.085C7.609 38.917 6 36.206 6 33.188 6 26.812 11.596 23 18.5 23S31 27.561 31 33.188Z" fill="#2F88FF" stroke="#000" stroke-width="4" stroke-linecap="round" stroke-linejoin="round"/><path d="M23 33.217c0 .996-.632 1.885-1.625 2.476-.78.463-1.782.265-2.875.265-1.152 0-2.204.167-3-.343-.92-.589-1.5-1.445-1.5-2.398C14 31.204 16.015 30 18.5 30s4.5 1.44 4.5 3.217Z" fill="#43CCF8" stroke="#fff" stroke-width="4" stroke-linecap="round" stroke-linejoin="round"/><path d="M15 18s3.5-1 8 0M20 11s3.5-1.5 7 0" stroke="#000" stroke-width="4" stroke-linecap="round" stroke-linejoin="round"/></svg>
